symbols/web/8mp/materialsymbolsoutlined/8mp_wght700gradN25_40px.svg

<svg xmlns="http://www.w3.org/2000/svg" height="40" width="40"><path d="M17.5 19.292h3.75q.625 0 1.146-.521.521-.521.521-1.146v-6.542q0-.625-.521-1.125t-1.146-.5H17.5q-.625 0-1.125.5t-.5 1.125v6.542q0 .625.5 1.146.5.521 1.125.521Zm.5-5.625v-2.584h2.792v2.584Zm0 4.208v-2.792h2.792v2.792ZM9.958 30.542h2.125v-7.25h2.042v4.958h2.167v-4.958h2.25v7.25h2.166v-7.75q0-.625-.52-1.146-.521-.521-1.146-.521h-7.459q-.625 0-1.125.521t-.5 1.146Zm13 0h2.167v-2.334h3.25q.625 0 1.146-.5.521-.5.521-1.166v-3.75q0-.625-.521-1.146-.521-.521-1.146-.521h-5.417Zm2.167-4.5v-2.75h2.75v2.75ZM8.292 35.917q-1.75 0-2.98-1.229-1.229-1.23-1.229-2.98V8.292q0-1.75 1.229-3 1.23-1.25 2.98-1.25h23.416q1.75 0 3 1.25t1.25 3v23.416q0 1.75-1.25 2.98-1.25 1.229-3 1.229Zm0-4.209h23.416V8.292H8.292v23.416Zm0-23.416v23.416V8.292Z"/></svg>

<svg xmlns="http://www.w3.org/2000/svg" height="40" width="40"><path d="M17.5 19.292H21.25Q21.875 19.292 22.396 18.771Q22.917 18.25 22.917 17.625V11.083Q22.917 10.458 22.396 9.958Q21.875 9.458 21.25 9.458H17.5Q16.875 9.458 16.375 9.958Q15.875 10.458 15.875 11.083V17.625Q15.875 18.25 16.375 18.771Q16.875 19.292 17.5 19.292ZM18 13.667V11.083H20.792V13.667ZM18 17.875V15.083H20.792V17.875ZM8.292 35.917Q6.542 35.917 5.312 34.688Q4.083 33.458 4.083 31.708V8.292Q4.083 6.542 5.312 5.292Q6.542 4.042 8.292 4.042H31.708Q33.458 4.042 34.708 5.292Q35.958 6.542 35.958 8.292V31.708Q35.958 33.458 34.708 34.688Q33.458 35.917 31.708 35.917ZM8.292 31.708H31.708Q31.708 31.708 31.708 31.708Q31.708 31.708 31.708 31.708V8.292Q31.708 8.292 31.708 8.292Q31.708 8.292 31.708 8.292H8.292Q8.292 8.292 8.292 8.292Q8.292 8.292 8.292 8.292V31.708Q8.292 31.708 8.292 31.708Q8.292 31.708 8.292 31.708ZM8.292 8.292Q8.292 8.292 8.292 8.292Q8.292 8.292 8.292 8.292V31.708Q8.292 31.708 8.292 31.708Q8.292 31.708 8.292 31.708Q8.292 31.708 8.292 31.708Q8.292 31.708 8.292 31.708V8.292Q8.292 8.292 8.292 8.292Q8.292 8.292 8.292 8.292ZM11.583 21.125Q10.958 21.125 10.458 21.646Q9.958 22.167 9.958 22.792V30.542H12.083V23.292H14.125V28.25H16.292V23.292H18.542V30.542H20.708V22.792Q20.708 22.167 20.188 21.646Q19.667 21.125 19.042 21.125ZM22.958 21.125V30.542H25.125V28.208H28.375Q29 28.208 29.521 27.708Q30.042 27.208 30.042 26.542V22.792Q30.042 22.167 29.521 21.646Q29 21.125 28.375 21.125ZM25.125 23.292H27.875V26.042H25.125Z"/></svg>
